build/flags/PuertoRico.svg

<svg xmlns="http://www.w3.org/2000/svg" fill="none" viewBox="0 0 28 28" focusable="false"><defs><filter id="Puerto_Rico_svg__a"><feColorMatrix values="0 0 0 0 1 0 0 0 0 1 0 0 0 0 1 0 0 0 1 0"/></filter><filter id="Puerto_Rico_svg__c" width="6.667" height="7.03" x="1.333" y="10.667" color-interpolation-filters="sRGB" filterUnits="userSpaceOnUse"><feFlood flood-opacity="0" result="BackgroundImageFix"/><feOffset dy="1" in="SourceAlpha"/><feColorMatrix values="0 0 0 0 0 0 0 0 0 0 0 0 0 0 0 0 0 0 0.06 0"/><feBlend in2="BackgroundImageFix" result="effect_dropShadow_1"/><feBlend in="SourceGraphic" in2="effect_dropShadow_1" result="shape"/></filter><linearGradient id="Puerto_Rico_svg__d" x1="1.333" x2="1.333" y1="10.667" y2="17.333" gradientUnits="userSpaceOnUse"><stop offset="0" stop-color="#FFF"/><stop offset="1" stop-color="#EFEFEF"/></linearGradient></defs><mask id="Puerto_Rico_svg__b" width="28" height="20" x="0" y="4" maskUnits="userSpaceOnUse"><g filter="url(#Puerto_Rico_svg__a)"><rect width="28" height="20" y="4" fill="#FFF" rx="3"/><rect width="27.5" height="19.5" x=".25" y="4.25" stroke="#F5F5F5" stroke-width=".5" rx="2.75"/></g></mask><path fill="none" d="M0 0H28V28H0z"/><rect width="28" height="20" y="4" fill="#FFF" rx="3"/><rect width="27.5" height="19.5" x=".25" y="4.25" stroke="#F5F5F5" stroke-width=".5" rx="2.75"/><g mask="url(#Puerto_Rico_svg__b)"><path fill="#FA2222" fill-rule="evenodd" d="M28 4L28 8L0 8L0 4L28 4ZM0 12L28 12L28 16L0 16L0 12ZM0 20L0 24L28 24L28 20L0 20Z"/><path d="M28 4L28 8L0 8L0 4L28 4ZM0 12L28 12L28 16L0 16L0 12ZM0 20L0 24L28 24L28 20L0 20Z"/><path fill="#1D63F9" fill-rule="evenodd" d="M0 4L13.3333 14L0 24L0 4Z"/><path d="M13.3333 14L0 24L0 4L13.3333 14Z"/><g filter="url(#Puerto_Rico_svg__c)"><path fill="url(#Puerto_Rico_svg__d)" fill-rule="evenodd" d="M4.66665 15.274L2.70736 16.6967L3.45492 14.3937L1.49646 12.9699L3.91776 12.9692L4.66665 10.6666L5.41553 12.9692L7.83683 12.9699L5.87837 14.3937L6.62593 16.6967L4.66665 15.274Z"/><path d="M2.70736 16.6967L3.45492 14.3937L1.49646 12.9699L3.91776 12.9692L4.66665 10.6666L5.41553 12.9692L7.83683 12.9699L5.87837 14.3937L6.62593 16.6967L4.66665 15.274L2.70736 16.6967Z"/></g></g></svg>

<svg xmlns="http://www.w3.org/2000/svg" fill="none" viewBox="0 0 28 28" focusable="false"><defs><linearGradient id="Puerto_Rico_svg__d" x1="1.333" x2="1.333" y1="10.667" y2="17.333" gradientUnits="userSpaceOnUse"><stop stop-color="#FFF"/><stop offset="1" stop-color="#F0F0F0"/></linearGradient><filter id="Puerto_Rico_svg__c" width="6.34" height="7.03" x="1.496" y="10.667" color-interpolation-filters="sRGB" filterUnits="userSpaceOnUse"><feFlood flood-opacity="0" result="BackgroundImageFix"/><feColorMatrix in="SourceAlpha" result="hardAlpha" values="0 0 0 0 0 0 0 0 0 0 0 0 0 0 0 0 0 0 127 0"/><feOffset dy="1"/><feGaussianBlur/><feComposite in2="hardAlpha" k2="-1" k3="1" operator="out"/><feColorMatrix values="0 0 0 0 0 0 0 0 0 0 0 0 0 0 0 0 0 0 0.059 0"/><feBlend in2="BackgroundImageFix" result="effect_dropShadow_1"/><feBlend in="SourceGraphic" in2="effect_dropShadow_1" result="shape"/></filter></defs><path fill="none" d="M0 0h28v28H0z"/><rect width="28" height="20" y="4" fill="#FFF" rx="3"/><rect width="27.5" height="19.5" x=".25" y="4.25" stroke="#F5F5F5" stroke-width=".5" rx="3"/><mask id="Puerto_Rico_svg__a" width="28" height="20" x="0" y="4" mask-type="alpha" maskUnits="userSpaceOnUse"><rect width="28" height="20" y="4" fill="#FFF" rx="3"/><rect width="27.5" height="19.5" x=".25" y="4.25" stroke="#F5F5F5" stroke-width=".5" rx="3"/></mask><g mask="url(#Puerto_Rico_svg__a)"><mask id="Puerto_Rico_svg__b" fill="#fff"><path fill-rule="evenodd" d="M0 4h28v4H0zm0 8h28v4H0zm0 8v4h28v-4z" clip-rule="evenodd"/></mask><path fill="#FA2222" fill-rule="evenodd" d="M0 4h28v4H0zm0 8h28v4H0zm0 8v4h28v-4z" clip-rule="evenodd" mask="url(#Puerto_Rico_svg__b)"/></g><g mask="url(#Puerto_Rico_svg__a)"><path fill="#1D63F9" fill-rule="evenodd" d="m0 4 13.33 10L0 24z"/><path d="M13.33 14 0 24V4z"/></g><g mask="url(#Puerto_Rico_svg__a)"><g filter="url(#Puerto_Rico_svg__c)"><path fill="url(#Puerto_Rico_svg__d)" fill-rule="evenodd" d="M4.66 15.27 2.7 16.69l.75-2.3-1.96-1.43h2.42l.75-2.3.75 2.3h2.42l-1.96 1.43.75 2.3z"/></g><path d="m2.7 16.69.75-2.3-1.96-1.43h2.42l.75-2.3.75 2.3h2.42l-1.96 1.43.75 2.3-1.96-1.42z"/></g></svg>
